X: 52
M:C|
L:1/8
K:Dmix
vD2FD ADFD|EcGc Ecc2|D2FD ADFD|((3Bcd) Ad FDD2|
((3fga) dg fdad|((3fga) cg ecgc|((3fga) dg fdad|((3Bcd) Ad FDDg|
fadg fdad|egcg ecgc|dfeg fagb|afge fdAF"D.C."||


